X: 032068
T: Calf Lea
C: Joe Liddy
S: "The Leitrim Fiddler" (Dublin 1981)
L: 1/8
M: 6/8
R: jig
Q: 1/4 = 170
K: G
E | DEG B2d | gbg aba | gag ege | dBG BGE |
DEG B2d | gbg age | ged edB | AGE G2 :|
e | dBd g2a | bag age | ged ege | dBA BGE |
GBd g2b | bag age | ged edB | AGE G2 :|
